X:1
T:When We Use Our Talents
T:When We Use Our Talents
T:William Edie Marks
T:E. D. Elliott, 1909
T:Public Domain Courtesy of the Cyber Hymnal™
T:Public Domain Courtesy of the Cyber Hymnal™
C:William Edie Marks
Z:Public Domain
Z:Courtesy of the Cyber Hymnal™
%%score ( 1 2 ) 3
L:1/8
Q:1/4=95
M:4/4
K:G
V:1 treble 
V:2 treble 
V:3 bass 
V:1
 [B,D]>[^A,^C] [A,E]>[B,D] [DG]2 [GB]2 | [GB]>[FA] [FA]>[GB] [Ac]4 | [Ac]>[GB] [FA]>[EG] [DF]2 D2 | %3
w: 1.~O the great- est joy is|found a- long the way,|And the heart is hap- py,|
w: 2.~Some may have a voice to|speak a cheer- ing word,|Let the Gos- pel news o’er|
w: 3.~Some may have a will- ing|hand to lend and aid,|Help- ing those who by their|
w: 4.~Let us then be up and|do- ing all the while,|Help- ing one an- o- ther|
 [FA]>[EG] [DF]>[CE] [B,D]4 | [B,D]>[^A,^C] [A,E]>[B,D] [B,G]2 [DB]2 | %5
w: sing- ing all the day,|For the Lord with rich- est|
w: all the world be heard,|O- ther souls to bet- ter|
w: bur- dens are dis- mayed,|Rich- ly will the lit- tle|
w: meet the dai- ly trial,|For some wear- y soul with|
 [EB]>[EA] [Ec]>[EA] [CE]2 [CE]>[CE] | [B,D]>[CE] [DF]>[Fc] [GB]2 G2 | [FA]4 G4 || %8
w: bless- ing doth re- pay, When we|use our tal- ents for the|Mas- ter!|
w: liv- ing can be stirred, When we|use our tal- ents for the|Mas- ter!|
w: ef- forts be re- paid, When we|use our tal- ents for the|Mas- ter!|
w: hope will bright- ly smile, When we|use our tal- ents for the|Mas- ter!|
"^Refrain" [Gd]>[G^c] [Ge]>[Gd] [G=c]2 [GB]2 | [EB]>[EA] [Ec]>[EA] [CE]2 z2 | %10
w: ||
w: O the joy that ser- vice|for the Sav- ior brings,|
w: ||
w: ||
 [Fc]>[FB] [Fd]>[Ac] [GB]2 [DA]2 | [DA]>[DG] [DB]>[B,G] [B,D]2 z2 | %12
w: ||
w: How the heart re- joic- ing|at its du- ty sings!|
w: ||
w: ||
 [Gd]>[G^c] [Ge]>[Gd] [G=c]2 [GB]2 | [EB]>[EA] [Ec]>[EA] [CE]2 [CE]>[CE] | %14
w: ||
w: In some o- ther heart the|joy- bell sweet- ly rings, When we|
w: ||
w: ||
 [B,D]>[CE] [DF]>[Fc] [GB]2 G2 | [FA]4 G4 |] %16
w: ||
w: use our tal- ents for the|Mas- ter!|
w: ||
w: ||
V:2
 x8 | x8 | x6 D2 | x8 | x8 | x8 | x6 G2 | x4 G4 || x8 | x8 | x8 | x8 | x8 | x8 | x6 G2 | x4 G4 |] %16
V:3
 [G,,G,]>[G,,G,] [G,,G,]>[G,,G,] [G,,B,]2 [G,,D]2 | [D,D]>[D,D] [D,D]>[D,D] [D,E]4 | %2
 [D,D]>[D,D] [D,D]>[D,A,] [D,A,]2 [D,F,]2 | [D,A,]>[D,A,] [D,A,]>[D,F,] [G,,G,]4 | %4
 [G,,G,]>[G,,G,] [G,,G,]>[G,,G,] [G,,G,]2 [G,,G,]2 | %5
 [C,G,]>[C,G,] [C,G,]>[C,G,] [C,G,]2 [C,G,]>[C,G,] | [D,G,]>[D,G,] [D,A,]>[D,D] [D,D]2 [D,B,]2 | %7
 [D,C]4 [G,,B,]4 || [G,B,]>[G,^A,] [G,A,]>[G,B,] [G,E]2 [G,D]2 | %9
 [C,C]>[C,C] [C,C]>[C,C] [C,A,]2 z2 | [D,D]>[D,D] [D,D]>[D,D] [D,D]2 [D,C]2 | %11
 [G,,C]>[G,,B,] [G,,G,]>[G,,G,] [G,,G,]2 z2 | [G,B,]>[G,^A,] [G,A,]>[G,B,] [G,E]2 [G,D]2 | %13
 [C,C]>[C,C] [C,C]>[C,C] [C,A,]2 [C,G,]>[C,G,] | [D,G,]>[D,G,] [D,A,]>[D,D] [D,D]2 [D,B,]2 | %15
 [D,C]4 [G,,B,]4 |] %16

